X: 18
T:Daisy Polka
R:Polka
M:2/4
L:1/16
K:G
Bc|d2B2 g3d|f2e2 a3g|f2e2 d2c2|B2e2 d2Bc|
d2B2 g3d|f2e2 a3g|f2e2 d2ef|g2g2 g2:|
K:D
z2|A2^GA B2c2|d2e2 f4|age2 age2|d2b2 a4|
A2^GA B2c2|d2e2 f4|age2 age2|d2d2 d2:|
K:G
Bc|d2B2 g3d|f2e2 a3g|f2e2 d2c2|B2e2 d2Bc|
d2B2 g3d|f2e2 a3g|f2e2 d2ef|g2g2 g2:|
K:C
e2|g2G2 cde2|g2G2 cde2|g2B2 Bcd2|def2 f2G2|
g2G2 cde2|g2G2 cde2|def2 Bcd2|d2c2 c2:|
